X: 24603
T: Mac An Irish
R: strathspey
M: 4/4
K: Dmajor
{g}A>B {Gdc}d>e {g}f<a {fg}f2|{gef}e>d {g}d/{e}d/{c}d {g}B<d{gef}e2|{g}A>B {Gdc}d>e {g}f<a{fg}f2|{g}f>e d<{e}B {g}A2{GAG}A2:|
{ag}a2{g}a>g {a}f<a{fg}f2|{gef}e>d {g}d/{e}d/{c}d {g}B<d{gef}e2|{ag}a2{g}a>g {a}f<a{fg}f2|{g}f>e d<{e}B {g}A2{GAG}A2||
{ag}a2{g}a>g {a}f<a{fg}f2|{gef}e>d {g}d/{e}d/{c}d {g}B<d{gef}e2|{g}A>B {Gdc}d>e {g}f<a{fg}f2|{g}f>e d<{e}B {g}A2{GAG}A2||

